src/assets/outline/ClipboardExport.svg

<svg width="24" height="24" viewBox="0 0 24 24"  xmlns="http://www.w3.org/2000/svg">
<path d="M14 6.75H10C9.04 6.75 7.25 6.75 7.25 4C7.25 1.25 9.04 1.25 10 1.25H14C14.96 1.25 16.75 1.25 16.75 4C16.75 4.96 16.75 6.75 14 6.75ZM10 2.75C9.01 2.75 8.75 2.75 8.75 4C8.75 5.25 9.01 5.25 10 5.25H14C15.25 5.25 15.25 4.99 15.25 4C15.25 2.75 14.99 2.75 14 2.75H10Z" />
<path d="M14 22.7502H9C3.38 22.7502 2.25 20.1702 2.25 16.0002V10.0002C2.25 5.44021 3.9 3.49021 7.96 3.28021C8.35 3.26021 8.73 3.57021 8.75 3.99021C8.77 4.41021 8.45 4.75021 8.04 4.77021C5.2 4.93021 3.75 5.78021 3.75 10.0002V16.0002C3.75 19.7002 4.48 21.2502 9 21.2502H14C14.41 21.2502 14.75 21.5902 14.75 22.0002C14.75 22.4102 14.41 22.7502 14 22.7502Z" />
<path d="M20.9999 15.7504C20.5899 15.7504 20.2499 15.4104 20.2499 15.0004V10.0004C20.2499 5.78042 18.7999 4.93042 15.9599 4.77042C15.5499 4.75042 15.2299 4.39042 15.2499 3.98042C15.2699 3.57042 15.6299 3.25042 16.0399 3.27042C20.0999 3.49042 21.7499 5.44042 21.7499 9.99042V14.9904C21.7499 15.4104 21.4099 15.7504 20.9999 15.7504Z" />
<path d="M15 19.75C14.59 19.75 14.25 19.41 14.25 19V16C14.25 15.59 14.59 15.25 15 15.25H18C18.41 15.25 18.75 15.59 18.75 16C18.75 16.41 18.41 16.75 18 16.75H15.75V19C15.75 19.41 15.41 19.75 15 19.75Z" />
<path d="M21 22.7505C20.81 22.7505 20.62 22.6805 20.47 22.5305L14.51 16.5705C14.22 16.2805 14.22 15.8005 14.51 15.5105C14.8 15.2205 15.28 15.2205 15.57 15.5105L21.53 21.4705C21.82 21.7605 21.82 22.2405 21.53 22.5305C21.38 22.6805 21.19 22.7505 21 22.7505Z" />
</svg>

<?xml version="1.0" encoding="UTF-8"?>
<svg width="24" height="24" viewBox="0 0 24 24" xmlns="http://www.w3.org/2000/svg">
 <path d="m14 6.75h-4c-0.96 0-2.75 0-2.75-2.75s1.79-2.75 2.75-2.75h4c0.96 0 2.75 0 2.75 2.75 0 0.96 0 2.75-2.75 2.75zm-4-4c-0.99 0-1.25 0-1.25 1.25s0.26 1.25 1.25 1.25h4c1.25 0 1.25-0.26 1.25-1.25 0-1.25-0.26-1.25-1.25-1.25h-4z"/>
 <path d="m14 22.75h-5c-5.62 0-6.75-2.58-6.75-6.75v-6c0-4.56 1.65-6.51 5.71-6.72 0.39-0.02 0.77 0.29 0.79 0.71s-0.3 0.76-0.71 0.78c-2.84 0.16-4.29 1.01-4.29 5.23v6c0 3.7 0.73 5.25 5.25 5.25h5c0.41 0 0.75 0.34 0.75 0.75s-0.34 0.75-0.75 0.75z"/>
 <path d="m21 15.75c-0.41 0-0.75-0.34-0.75-0.75v-5c0-4.22-1.45-5.07-4.29-5.23-0.41-0.02-0.73-0.38-0.71-0.79s0.38-0.73 0.79-0.71c4.06 0.22 5.71 2.17 5.71 6.72v5c0 0.42-0.34 0.76-0.75 0.76z"/>
 <path d="m15 19.75c-0.41 0-0.75-0.34-0.75-0.75v-3c0-0.41 0.34-0.75 0.75-0.75h3c0.41 0 0.75 0.34 0.75 0.75s-0.34 0.75-0.75 0.75h-2.25v2.25c0 0.41-0.34 0.75-0.75 0.75z"/>
 <path d="m21 22.75c-0.19 0-0.38-0.07-0.53-0.22l-5.96-5.96c-0.29-0.29-0.29-0.77 0-1.06s0.77-0.29 1.06 0l5.96 5.96c0.29 0.29 0.29 0.77 0 1.06-0.15 0.15-0.34 0.22-0.53 0.22z"/>
</svg>
